X: 875
T: Alex Howell's Silver Fox
R: jig
M: 6/8
K: Gmajor
BAG ABc|BAG E2D|BAG ABc|dGF G3|
BAG ABc|BAG E2D|BAG ABc|dgf g2d||
g>ag fed|ege dAB|cBA BGE|cGE FAd|
g>ag fed|ege dAB|cBA BAG|ABA G2d|
g>ag fed|ege dAB|cdg Bdg|ege fga|
b>c'b agf|ege dAB|cBA BAG|ABA G3||

